svgs/sharp-solid/arrow-up-to-dotted-line.svg

<svg xmlns="http://www.w3.org/2000/svg" viewBox="0 0 448 512"><!--! Font Awesome Pro 6.6.0 by @fontawesome - https://fontawesome.com License - https://fontawesome.com/license (Commercial License) Copyright 2024 Fonticons, Inc. --><path d="M64 32L0 32 0 96l64 0 0-64zm96 0L96 32l0 64 64 0 0-64zm32 0l0 64 64 0 0-64-64 0zm160 0l-64 0 0 64 64 0 0-64zm32 0l0 64 64 0 0-64-64 0zM246.6 169.4L224 146.7l-22.6 22.6-128 128L50.7 320 96 365.3l22.6-22.6L192 269.3l0 66.7 0 112 0 32 64 0 0-32 0-112 0-66.7 73.4 73.4L352 365.3 397.3 320l-22.6-22.6-128-128z"/></svg>

<svg xmlns="http://www.w3.org/2000/svg" viewBox="0 0 448 512"><!--! Font Awesome Pro 6.4.0 by @fontawesome - https://fontawesome.com License - https://fontawesome.com/license (Commercial License) Copyright 2023 Fonticons, Inc. --><path d="M64 32H0V96H64V32zm96 0H96V96h64V32zm32 0V96h64V32H192zm160 0H288V96h64V32zm32 0V96h64V32H384zM246.6 169.4L224 146.7l-22.6 22.6-128 128L50.7 320 96 365.3l22.6-22.6L192 269.3V336 448v32h64V448 336 269.3l73.4 73.4L352 365.3 397.3 320l-22.6-22.6-128-128z"/></svg>
